www/static/img/overview/link.svg

<svg fill="none" height="54" viewBox="0 0 80 54" width="80" xmlns="http://www.w3.org/2000/svg"><rect fill="#fff" height="52" rx="3" stroke="#005a7a" stroke-width="2" width="78" x="1" y="1"/><path d="m35 21c0 .5523-.4477 1-1 1s-1-.4477-1-1c0-3.8653 3.1347-7 7-7s7 3.1347 7 7c0 .5523-.4477 1-1 1s-1-.4477-1-1c0-2.7607-2.2393-5-5-5s-5 2.2393-5 5zm15.0002 10.1647v1.833c0 2.7659-2.2438 5.007-5.0086 5.002l-6.993-.011c-.1584-.0003-.3145-.0381-.4555-.1106l-6.05-3.109-.1033-.0612c-1.4558-.9851-1.8299-2.9156-.8262-4.3419.8605-1.2221 2.4831-1.6985 3.9016-1.1615l2.535.9595v-9.1633c0-1.6573 1.3428-3.001 3-3.001 1.6565 0 3 1.3439 3 3.001v4.4218l5.4882 3.137c.9344.5339 1.5118 1.5292 1.5118 2.6052zm-5.0052 4.835c1.6588.003 3.0052-1.3418 3.0052-3.002v-1.833c0-.3584-.1929-.6909-.5041-.8688l-5.9921-3.425c-.3116-.1781-.5038-.5094-.5038-.8682v-5.002c0-.5526-.4482-1.001-1-1.001-.5524 0-1 .4479-1 1.001v10.611c0 .6995-.6998 1.1829-1.354.9352l-3.889-1.472c-.5741-.2173-1.2292-.0249-1.5582.4423-.3448.49-.2315 1.1356.2694 1.5045l5.7745 2.9674z" fill="#005a7a"/></svg>

<svg width="80" height="54" viewBox="0 0 80 54" fill="none" xmlns="http://www.w3.org/2000/svg">
<rect x="1" y="1" width="78" height="52" rx="3" fill="white" stroke="#005A7A" stroke-width="2"/>
<path d="M35 21C35 21.5523 34.5523 22 34 22C33.4477 22 33 21.5523 33 21C33 17.1347 36.1347 14 40 14C43.8653 14 47 17.1347 47 21C47 21.5523 46.5523 22 46 22C45.4477 22 45 21.5523 45 21C45 18.2393 42.7607 16 40 16C37.2393 16 35 18.2393 35 21ZM50.0002 31.1647V32.9977C50.0002 35.7636 47.7564 38.0047 44.9916 37.9997L37.9986 37.9887C37.8402 37.9884 37.6841 37.9506 37.5431 37.8781L31.4931 34.7691L31.3898 34.7079C29.934 33.7228 29.5599 31.7923 30.5636 30.366C31.4241 29.1439 33.0467 28.6675 34.4652 29.2045L37.0002 30.164V21.0007C37.0002 19.3434 38.343 17.9997 40.0002 17.9997C41.6567 17.9997 43.0002 19.3436 43.0002 21.0007V25.4225L48.4884 28.5595C49.4228 29.0934 50.0002 30.0887 50.0002 31.1647ZM44.995 35.9997C46.6538 36.0027 48.0002 34.6579 48.0002 32.9977V31.1647C48.0002 30.8063 47.8073 30.4738 47.4961 30.2959L41.504 26.8709C41.1924 26.6928 41.0002 26.3615 41.0002 26.0027V21.0007C41.0002 20.4481 40.552 19.9997 40.0002 19.9997C39.4478 19.9997 39.0002 20.4476 39.0002 21.0007V31.6117C39.0002 32.3112 38.3004 32.7946 37.6462 32.5469L33.7572 31.0749C33.1831 30.8576 32.528 31.05 32.199 31.5172C31.8542 32.0072 31.9675 32.6528 32.4684 33.0217L38.2429 35.9891L44.995 35.9997Z" fill="#005A7A"/>
</svg>
